X:86
T:Larry O'Gaff
M:6/8
L:1/8
K:G
(3(d/e/f/)|gGG BAG|ded dBG|cec BdB|ABc def|gGG BAG|ded dBG|cec BdB|AGA G2::
d|dgg gag|gag afd|daa aba|aga bag|gba gfe|dge dBG|cBc Adc|BGG G2:|
